!!! OTL: Qiou-Shou (Harvest)
!!! YEC: Copyright 2001, Chia-wei Lee
!! For Voice Only
!! [Moderato]
**kern	**silbe	**silbe	**silbe	**silbe
*clefG2	*LXinhua	*LXinhua	*LXinhua	*LXinhua
*A:	*ping-ying	*ping-ying	*ping-ying	*ping-ying
*M2/4	*verse1	*verse2	*verse3	*verse4
=5	=5	=5	=5	=5
8ee	Jou^	Hong/	Sin-	Ni^
(16ee	Yue\	Ge\	Mi/	Kan\
16ee)	Li^	|	Zi	Na\
8ff#	Jou^	Dan\	Chang^	Gu^
(16aa	Chong/	Dan\	Shang\	Sui\
16cc#)	|	De	|	|
=6	=6	=6	=6	=6
(16b	Yang/	Tai\	Pu\	Sui\
16a)	|	|	|	|
4b	,	Yang/	,	,
(16aa	Ai\	Ai\	Ai\	Ai\
16ff#)	|	|	|	|
=7	=7	=7	=7	=7
8ee	Shou-	Nuan^	Pu-	Duo-
16ee	A	A	A	A
16cc#	|	|	|	|
16b	Shou-	Nuan^	Pu-	Duo-
16cc#	|	|	|	|
(16b	Qiou-	Tan/	Cheng/	Mo
16e)	|	|	|	|
=8	=8	=8	=8	=8
2a	Mang/	Tan/	Hang/	chang/
=9	=9	=9	=9	=9
8b	Gu^	Mang^	kuai\	Chen/
8ee	Zi	Chang^	pu-	Dien\
8dd	A	De	Hau^	Dien\
16cc#	Na\	Na\	Na\	Na\
16b	Ge\	Ge\	Ge\	Ge\
=10	=10	=10	=10	=10
8a	Mi/	Sing-	Lai/	Sai\
(16g#	Zi	Mi/	Da^	Jin-
16f#)	|	|	|	|
8e	A	Zi	Chang^	Bian-
8ee	Ai\	Ai\	Ai\	Ai\
=11	=11	=11	=11	=11
8a	Pu-	Pen-	Lai/	Sh/
(16gg#	A	A	A	A
16ff#)	|	|	|	|
(16ee	Pu-	Pen-	Lai/	Sh/
16ff#)	|	|	|	|
(16ee	Shang\	Bi/	Da^	Zia
16B)	|	|	|	|
=12	=12	=12	=12	=12
2e;	Chang^,	Xiang-,	Chang^,	Qiang/.
*-	*-	*-	*-	*-
